X:1
T:The Well-Tempered Clavier Book I - XIII
T:BWV 858    (A = 415 Hz) 
T:J. S. Bach
%%score { ( 1 3 ) | 2 }
L:1/8
Q:1/4=96
M:12/16
K:F#
V:1 treble nm="Harp"
V:3 treble 
V:2 bass 
V:1
"^Andante""^Praeludium" F/A/c/ A/F/c/ d/4c/4d/4c/4d/4c/4d/4c/4 d/4c/4d/4c/4 | c/A/B c/A d/G A/F/- | %2
 F/B/E B/D B/C/ E/G/B/ | A/F/^B F/c F/d G/e/- | e/g/c d/^B/ c/e/c/ c/e/4d/4c/- | %5
 c/a/c d/^B/ c/e/g/ e/c/g/ | a/4g/4a/4g/4a/4g/4a/4g/4a/4g/4a/4g/4 g/e/f g/e/- | %7
 e/a/d e/^^c/ f/A/B ^c/A/- | A/d/G A/F B/=E F/D/ | G/^^C/D C/G E/B G/e/- | e/E/F A/d E/G A/^^c/ | %11
 e/4d/4e/4d/4e/4d/4e/4d/4e/4d/4e/4d/4 e/4d/4f/a/ f/d/^^g/ | %12
 a/4^^g/4a/4g/4a/4g/4a/4g/4a/4g/4a/4g/4 a/4g/4a/^b/ e/f/d/ | c/e/A ^B/^^G/ A/c/A/ A/c/4B/4A/- | %14
 A/f/A ^B/^^G/ A/c/e/ c/A/^^f/ | g/4^^f/4g/4f/4g/4f/4g/4f/4g/4f/4g/4f/4 g/4f/4a/d/ c/B/A/ | %16
 B/d/G A/^^F/ G/B/G/ G/B/4A/4G/- | G/=e/G A/^^F/ G/B/d/ B/G/^e/ | %18
 f/4e/4f/4e/4f/4e/4f/4e/4f/4e/4f/4e/4 f/4e/4c/e/ g/e/g/ | b3- b/g/a b/g/- | %20
 g/e/f g/e/ f/A/B c/A/- | A/d/G A/F =F/B G/d/- | d/B/g e/B G/c A/F/- | F/D/B G/E/ F3- | %24
 F/A,/B, C/A, D/G, A,/F,/ | B,3- B,/=F/G/ F/B,/G/ | =A,/C/F/ B,/E/G/ C/F/=A/=D/G/B/ | %27
 E/B/=d B/e d/g e/b/ | a/c/f g/=f/ ^f/A/f/ f/a/4g/4f/- | f/G/fg/e/ f/c/A/ !fermata!F3/2 | %30
[M:4/4] z8 |"^Fuga" z cfe fe/d/ d/4c/4d/4c/4d/4c/4B/4c/4 | d2 z c BAGc | %33
 AF/f/ e/f/g/d/ e/f/g- g/f/f/d/ | c/d/e/^B/ c/d/e/c/ A/B/ c2 B | c4- cc/d/ e2 | f2 z A GA BA/G/ | %37
 A/c/c/A/ G/c/c/G/ Ac f2- | f e2 d/c/ ^Bd g2- | gf/e/ f2- fe/d/ e2- | eedc ^BG c2- | %41
 c2- c/c^B/ ccfe | fe/d/ c2 d2 z c | BAGc AAd^^c | d2 z e fgaf | d2 z g e2 z e | %46
 d/^B/c/e/ d/B/c- c/B/ c2 B | c2 z ^B c/e/e/c/ B/e/e/B/ | ce a2- ag/f/ g2- | gf/e/ f2- ffed | %50
 ^^c z4 D/E/ F/D/D/F/ | G/D/D/G/ A/D/D/A/ B/D/D/B/ ^^c/D/D/c/ | %52
 d2 z/ e/f/g/ ^^c/b/a g/4f/4g/4f/4e/d/ | dfba b4- | beag a4- | aagf e2 =e2- | %56
 e/c/c/=e/ d/B/B/d/ d/B/B/d/ c/A/A/c/ | c/A/A/c/ B/G/G/B/ B/G/G/B/ A/B/c/G/ | %58
 Acd=e- e/d/c/e/ d/B/B/d/ | =e/B/B/e/ f/B/B/f/ g/B/B/g/ a/B/B/a/ | b z4 dg^^f | gabg ecfe | %62
 fe/d/ d/4c/4d/4c/4d/4c/4B/4c/4 d2 z c | BAGc A/c/c/A/ G/c/c/G/ | Ac f4 e2 | f8 |] %66
V:2
 z3 F,/A,/C/ A,/F,/D/ | D3/2C3/2 B,3/2A,3/2 | G,3/2F,3/2 E,3/2C,3/2 | F,3/2G,3/2 A,3/2^B,3/2 | %4
 C3/2G,3/2 A,3/2E,3/2 | F,3/2G,3/2 C,3/2 z3/2 | C,/E,/G,/ E,/C,/A,/ A,3/2G,3/2 | %7
 F,3/2E,3/2 D,3/2C,3/2 | B,,3/2A,,3/2 G,,3/2F,,3/2 | E,,3/2D,3/2 ^^C,3/2A,,3/2 | %10
 D,3/2F,3/2 G,3/2A,3/2 | D,/F,/A,/ F,/D,/^B,/ C/4^B,/4C/4^B,/4C/4^B,/4C/4^B,/4C/4^B,/4C/4^B,/4 | %12
 C/4^B,/4D/F/ D/^B,/F/ F/E/D/ C/D/E/ | A,3/2E,3/2 F,3/2C,3/2 | D,3/2E,3/2 A,,3/2 z3/2 | %15
 D,/^^F,/A,/ F,/D,/C/ C3/2F,3/2 | G,3/2D,3/2 =E,3/2B,,3/2 | C,3/2D,3/2G,,3/2 z3/2 | %18
 C,/E,/G,/ E,/C,/B,/ B,2 G,/B,/ | E/G/E/ C/E/C/ F,3/2B,3/2 | ^B,3/2C3/2 D,3/2C,3/2 | %21
 B,,3/2A,,3/2 G,,3/2F,3/2 | E,3/2C,3/2 F,3/2A,,3/2 | B,,3/2C,3/2 F,,/A,,/C,/ A,,/F,,/D,/ | %24
 D,3/2C,3/2 B,,3/2A,,3/2 | G,,/B,,/D,/ B,,/G,,/E,/ C,,3- | C,,3/2C,3/2 C,,3/2C,3/2 | %27
 C,,3/2E,3/2 G,3/2C3/2 | F,3/2C,3/2 D,3/2A,,3/2 | B,,3/2C,3/2 F,,3 |[M:4/4] z8 | z8 | z8 | z8 | %34
 z8 | z C,F,E, F,E,/D,/ D,/4C,/4D,/4C,/4D,/4C,/4B,,/4C,/4 | D,2 z C, B,,A,,G,,C, | %37
 F,,F,E,C, F,/A,/A,/F,/ D,/F,/F,/D,/ | ^B,,C, F,2- F,/G,/^B,/G,/ E,/G,/G,/E,/ | %39
 ^^C,/A,/A,/F,/ D,/F,/F,/D,/ ^B,,/G,/G,/E,/ ^C,/E,/E,/C,/ | %40
 A,,/C,/C,/A,,/ F,,F,- F,/F,/E,/D,/ C,/D,/E,/C,/ | A,,/C,/C,/A,,/ F,,G,, C,,2 z2 | %42
 z F,/G,/ A,/F,/F,/A,/ B,/F,/F,/B,/ C/F,/F,/C/ | D/F,/F,/D/ E/F,/F,/E/ F/E/D/C/ B,/G/G/B,/ | %44
 A,/F/F/A,/ G,/E/E/G,/ F,/G,/F,/E,/ D,/E,/F,/D,/ | %45
 G,/A,/G,/F,/ E,/F,/G,/E,/ A,/^B,/C- C/B,/A,/G,/ | F,/G,/A,/E,/ F,/G,/A,/F,/ D,E,/F,/ G,G,, | %47
 C,C^B,G, CA,^^G,E, | A,/C/C/A,/ F,/A,/A,/F,/ D,/B,/B,/G,/ E,/G,/G,/E,/ | %49
 ^^C,/A,/A,/F,/ D,/F,/F,/D,/ B,,/D,/D,/B,,/ G,,/B,,/B,,/G,,/ | %50
 A,,A,,D,^^C, D,^C,/B,,/ B,,/4A,,/4B,,/4A,,/4B,,/4A,,/4G,,/4A,,/4 | B,,2 z A,, G,,F,,E,,A,, | %52
 D,,F,, G,,2- G,,/E,/F,/G,/ A,A,, | D,/A,/A,/F,/ D,/F,/F,/D,/ G,,/D/D/B,/ G,/B,/B,/G,/ | %54
 E,/G,/G,/E,/ C,/E,/E,/C,/ F,,/C/C/A,/ F,/A,/A,/F,/ | D,/F,/F,/D,/ B,,/D,/D,/B,,/ C,C,, z C/B,/ | %56
 CF,B,A, B,E,A,G, | A,D,G,F, G,C,F,E, | F,/A,/A,/F,/ D,/F,/F,/D,/ B,, z2 B, | B,8- | %60
 B,/A,/G,/F,/ =E,/C/C/E,/ D,/B,/B,/D,/ C,/A,/A,/C,/ | %61
 B,,/C,/B,,/A,,/ G,,/A,,/B,,/G,,/ C,/D,/C,/B,,/ A,,/B,,/C,/A,,/ | %62
 D,/E,/F,- F,/E,/D,/C,/ B,,/C,/D,/A,,/ B,,/C,/D,/B,,/ | G,,A,,/B,,/ C,C,, F,,F,E,C, | %64
 F,/A,/A,/F,/ D,/F,/F,/D,/ B,,G,,C,C,, | F,,8 |] %66
V:3
 x6 | x6 | x6 | x6 | x6 | x6 | x6 | x6 | x6 | x6 | x6 | x6 | x6 | x6 | x6 | x6 | x6 | x6 | x6 | %19
 x6 | x6 | x6 | x6 | x6 | x6 | x6 | x6 | x6 | x6 | x6 |[M:4/4] x8 | x8 | x8 | %33
 z Fc^B cB/A/ A/4G/4A/4G/4A/4G/4F/4G/4 | A2 z G FEDG | EC/B/ A/B/c/G/ A/B/c c/B/A/G/ | %36
 F/G/A/E/ F/G/A/F/ D/E/ F2 E | F2 z E F2 z A | d/G/G/c/ A/F/F/A/ G2 z ^B | A2 z A G2 z G | %40
 F2 F/G/A/F/ D2 z G | FEDD E/G/c/=B/ A/B/c/G/ | A/B/c- c/B/A/G/ F/G/A/E/ F/G/A/E/ | F2 G2- GF z2 | %44
 z Ad^^c defd | ^BGcB cB/A/ G3/2F/4G/4 | A2 z G FEDG | E/G/G/E/ D/G/G/D/ E2 z ^^G | %48
 A2 z c =B2 z B | A2 z A G4- | G/B/A/G/ F/G/A/E/ F/G/A z d | d6 G2 | G/F/G/A/ B2 A z/ d/- d^^c | %53
 d z z2 z dgf | g4- gcfe | fc d2 d/G/G/c/ c/G/G/B/ | A4 G4 | F4 E2 z2 | %58
 z FBA BA/G/[I:staff +1] F3/2=E/4F/4 | G2[I:staff -1] z[I:staff +1] F =EDCF | %60
 D[I:staff -1]DG^^F G2 z A | BcdB G2 z c | A2 z B G/E/F/A/ G/E/F- | F/E/ F2 E F2 z E | %64
 F2 z A G/d/d/B/ G/c/c/B/ | A8 |] %66

